assets/offering/drulle-grey.svg

<svg width="48" height="48" viewBox="0 0 48 48" fill="none" xmlns="http://www.w3.org/2000/svg">
<g opacity="0.3">
<mask id="mask0" mask-type="alpha" maskUnits="userSpaceOnUse" x="0" y="0" width="48" height="48">
<path fill-rule="evenodd" clip-rule="evenodd" d="M0 0H47.9999V47.9998H0V0Z" fill="white"/>
</mask>
<g mask="url(#mask0)">
<path fill-rule="evenodd" clip-rule="evenodd" d="M48 24C48 37.255 37.255 48 24 48C10.745 48 0 37.255 0 24C0 10.745 10.745 0 24 0C37.255 0 48 10.745 48 24" fill="#1BE9B6"/>
</g>
<mask id="mask1" mask-type="alpha" maskUnits="userSpaceOnUse" x="0" y="0" width="48" height="48">
<path fill-rule="evenodd" clip-rule="evenodd" d="M0 48H48V0H0V48Z" fill="white"/>
</mask>
<g mask="url(#mask1)">
<path fill-rule="evenodd" clip-rule="evenodd" d="M21.8472 15.6538H26.1522V14.6538H21.8472V15.6538Z" fill="white"/>
<path fill-rule="evenodd" clip-rule="evenodd" d="M30.5732 37.8941H17.4272C16.2562 37.8941 15.3032 36.9411 15.3032 35.7701V23.8531H16.3032V35.7701C16.3032 36.3901 16.8072 36.8941 17.4272 36.8941H30.5732C31.1922 36.8941 31.6962 36.3901 31.6962 35.7701V16.8311H32.6962V35.7701C32.6962 36.9411 31.7442 37.8941 30.5732 37.8941" fill="white"/>
<path fill-rule="evenodd" clip-rule="evenodd" d="M16.3037 25.3589H15.3037V12.2299C15.3037 11.0589 16.2557 10.1069 17.4267 10.1069H30.5737C31.7437 10.1069 32.6967 11.0589 32.6967 12.2299V23.0469H31.6967V12.2299C31.6967 11.6099 31.1927 11.1069 30.5737 11.1069H17.4267C16.8077 11.1069 16.3037 11.6099 16.3037 12.2299V25.3589Z" fill="white"/>
<path fill-rule="evenodd" clip-rule="evenodd" d="M25.5225 32.795C25.5225 31.954 24.8405 31.272 24.0005 31.272C23.1595 31.272 22.4775 31.954 22.4775 32.795C22.4775 33.636 23.1595 34.317 24.0005 34.317C24.8405 34.317 25.5225 33.636 25.5225 32.795" fill="white"/>
<path fill-rule="evenodd" clip-rule="evenodd" d="M38.0031 25.6916C36.4181 25.6916 35.6001 24.9956 34.8771 24.3806C34.2001 23.8056 33.6161 23.3086 32.3991 23.3086C31.1831 23.3086 30.5991 23.8056 29.9231 24.3806C29.2001 24.9956 28.3821 25.6916 26.7971 25.6916C25.2131 25.6916 24.3951 24.9956 23.6731 24.3806C22.9971 23.8056 22.4131 23.3086 21.1971 23.3086C19.9811 23.3086 19.3971 23.8056 18.7211 24.3806C17.9981 24.9956 17.1801 25.6916 15.5961 25.6916C14.0121 25.6916 13.1931 24.9956 12.4721 24.3806C11.7961 23.8056 11.2121 23.3086 9.99609 23.3086V22.3086C11.5801 22.3086 12.3991 23.0046 13.1201 23.6196C13.7961 24.1946 14.3801 24.6916 15.5961 24.6916C16.8131 24.6916 17.3971 24.1946 18.0721 23.6196C18.7951 23.0046 19.6131 22.3086 21.1971 22.3086C22.7811 22.3086 23.6001 23.0046 24.3211 23.6196C24.9971 24.1946 25.5811 24.6916 26.7971 24.6916C28.0141 24.6916 28.5991 24.1946 29.2741 23.6186C29.9971 23.0046 30.8161 22.3086 32.3991 22.3086C33.9841 22.3086 34.8031 23.0046 35.5251 23.6196C36.2021 24.1946 36.7861 24.6916 38.0031 24.6916V25.6916Z" fill="white"/>
</g>
</g>
</svg>

<svg width="48" height="48" viewBox="0 0 48 48" fill="none" xmlns="http://www.w3.org/2000/svg"><g opacity=".3"><mask id="a" maskUnits="userSpaceOnUse" x="0" y="0" width="48" height="48"><path fill-rule="evenodd" clip-rule="evenodd" d="M0 0h48v48H0V0z" fill="#fff"/></mask><g mask="url(#a)"><path fill-rule="evenodd" clip-rule="evenodd" d="M48 24c0 13.255-10.745 24-24 24S0 37.255 0 24 10.745 0 24 0s24 10.745 24 24" fill="#1BE9B6"/></g><mask id="b" maskUnits="userSpaceOnUse" x="0" y="0" width="48" height="48"><path fill-rule="evenodd" clip-rule="evenodd" d="M0 48h48V0H0v48z" fill="#fff"/></mask><g mask="url(#b)" fill-rule="evenodd" clip-rule="evenodd" fill="#fff"><path d="M21.847 15.654h4.305v-1h-4.305v1zM30.573 37.894H17.427a2.127 2.127 0 01-2.124-2.124V23.853h1V35.77c0 .62.504 1.124 1.124 1.124h13.146c.62 0 1.123-.504 1.123-1.124V16.831h1v18.94a2.126 2.126 0 01-2.123 2.123"/><path d="M16.304 25.359h-1v-13.13c0-1.17.952-2.122 2.123-2.122h13.147c1.17 0 2.123.952 2.123 2.123v10.817h-1V12.23c0-.62-.504-1.123-1.123-1.123H17.427c-.62 0-1.123.503-1.123 1.123v13.129zM25.523 32.795a1.523 1.523 0 10-3.046 0 1.523 1.523 0 003.046 0"/><path d="M38.003 25.692c-1.585 0-2.403-.696-3.126-1.311-.677-.575-1.26-1.072-2.478-1.072-1.216 0-1.8.497-2.476 1.072-.723.615-1.54 1.31-3.126 1.31-1.584 0-2.402-.695-3.124-1.31-.676-.575-1.26-1.072-2.476-1.072s-1.8.497-2.476 1.072c-.723.615-1.54 1.31-3.125 1.31-1.584 0-2.403-.695-3.124-1.31-.676-.575-1.26-1.072-2.476-1.072v-1c1.584 0 2.403.696 3.124 1.31.676.576 1.26 1.073 2.476 1.073 1.217 0 1.801-.497 2.476-1.072.723-.615 1.541-1.311 3.125-1.311s2.403.696 3.124 1.31c.676.576 1.26 1.073 2.476 1.073 1.217 0 1.802-.497 2.477-1.073.723-.614 1.542-1.31 3.125-1.31 1.585 0 2.404.696 3.126 1.31.677.576 1.261 1.073 2.478 1.073v1z"/></g></g></svg>
